icons/Jar_filled.svg

<svg width="24" height="24" viewBox="0 0 24 24" fill="none" xmlns="http://www.w3.org/2000/svg">
<path fill-rule="evenodd" clip-rule="evenodd" d="M5.25,4.5c0,-1.24264 1.00736,-2.25 2.25,-2.25h9c1.2426,0 2.25,1.00736 2.25,2.25c0,0.93444 -0.5696,1.73583 -1.3806,2.07588l1.8306,2.44079c0.357,0.47601 0.55,1.05493 0.55,1.65003v8.3333c0,1.5188 -1.2312,2.75 -2.75,2.75h-10c-1.51878,0 -2.75,-1.2312 -2.75,-2.75v-8.3333c0,-0.5951 0.19299,-1.17402 0.55,-1.65003l1.83059,-2.44079c-0.81096,-0.34005 -1.38059,-1.14144 -1.38059,-2.07588zM17.25,4.5c0,-0.41421 -0.3358,-0.75 -0.75,-0.75h-9c-0.41421,0 -0.75,0.33579 -0.75,0.75c0,0.41421 0.33579,0.75 0.75,0.75h1.5h6h1.5c0.4142,0 0.75,-0.33579 0.75,-0.75z" fill="#002B51"/>
</svg>

<svg width="24" height="24" viewBox="0 0 24 24" fill="none" xmlns="http://www.w3.org/2000/svg">
<path fill-rule="evenodd" clip-rule="evenodd" d="M5.25 4.5C5.25 3.25736 6.25736 2.25 7.5 2.25H16.5C17.7426 2.25 18.75 3.25736 18.75 4.5C18.75 5.43444 18.1804 6.23583 17.3694 6.57588L19.2 9.01667C19.557 9.49268 19.75 10.0716 19.75 10.6667V19C19.75 20.5188 18.5188 21.75 17 21.75H7C5.48122 21.75 4.25 20.5188 4.25 19V10.6667C4.25 10.0716 4.44299 9.49268 4.8 9.01667L6.63059 6.57588C5.81963 6.23583 5.25 5.43444 5.25 4.5ZM16.5 5.25H15H9H7.5C7.08579 5.25 6.75 4.91421 6.75 4.5C6.75 4.08579 7.08579 3.75 7.5 3.75H16.5C16.9142 3.75 17.25 4.08579 17.25 4.5C17.25 4.91421 16.9142 5.25 16.5 5.25Z" fill="#002B51"/>
</svg>
